archdroid-icon-theme/Archdroid-Indigo/places/scalable/folder-collection-opensuse.svg

<?xml version="1.0" encoding="UTF-8" standalone="no"?>
<svg
   xmlns:dc="http://purl.org/dc/elements/1.1/"
   xmlns:cc="http://creativecommons.org/ns#"
   xmlns:rdf="http://www.w3.org/1999/02/22-rdf-syntax-ns#"
   xmlns:svg="http://www.w3.org/2000/svg"
   xmlns="http://www.w3.org/2000/svg"
   xmlns:sodipodi="http://sodipodi.sourceforge.net/DTD/sodipodi-0.dtd"
   xmlns:inkscape="http://www.inkscape.org/namespaces/inkscape"
   fill="#3F51B5"
   width="48"
   height="48"
   viewBox="0 0 48 48"
   id="svg2"
   version="1.1"
   inkscape:version="0.91 r13725"
   sodipodi:docname="folder-collection.svg">
  <metadata
     id="metadata10">
    <rdf:RDF>
      <cc:Work
         rdf:about="">
        <dc:format>image/svg+xml</dc:format>
        <dc:type
           rdf:resource="http://purl.org/dc/dcmitype/StillImage" />
        <dc:title />
      </cc:Work>
    </rdf:RDF>
  </metadata>
  <defs
     id="defs8" />
  <sodipodi:namedview
     pagecolor="#ffffff"
     bordercolor="#666666"
     borderopacity="1"
     objecttolerance="10"
     gridtolerance="10"
     guidetolerance="10"
     inkscape:pageopacity="0"
     inkscape:pageshadow="2"
     inkscape:window-width="1366"
     inkscape:window-height="713"
     id="namedview6"
     showgrid="false"
     inkscape:zoom="6.179518388275623"
     inkscape:cx="37.88398022954635"
     inkscape:cy="17.23717474450736"
     inkscape:window-x="0"
     inkscape:window-y="30"
     inkscape:window-maximized="1"
     inkscape:current-layer="svg2"
     inkscape:snap-bbox="true"
     inkscape:bbox-nodes="true" />
  <path
     d="m 8,12 -4,0 0,28 c 0,2.21 1.79,4 4,4 l 28,0 0,-4 -28,0 0,-28 z"
     id="path4146" />
  <path
     d="M 16 4 C 13.79 4 12 5.789999999999999 12 8 L 12 32 C 12 34.21 13.79 36 16 36 L 40 36 C 42.21 36 44 34.21 44 32 L 44 8 C 44 5.79 42.21 4 40 4 L 16 4 z M 28 10 C 33.52227475686954 10 38 14.47716051596552 38 20 C 38 25.52295903118985 33.52227475686954 30 28 30 C 22.47760569526052 30 18 25.52295903118985 18 20 C 18 14.4771605159655 22.4774861473906 10 28 10 z M 28.048828125 11.384765625 C 24.74500319090076 11.384765625 22.85706034776473 12.7373729718078 21.625 14.26171875 C 22.56906952904113 14.52065788854319 23.22689701221858 14.7363468976392 23.439453125 14.806640625 C 23.442083178139 14.66390132148174 23.46484375 13.376953125 23.46484375 13.376953125 L 23.484375 13.337890625 L 23.53125 13.322265625 C 23.82127313251284 13.3645853180029 30.01794041108404 14.28014143362442 32.626953125 15.80078125 C 32.94961282601079 15.99026349127003 33.10675658643388 16.190105614308 33.306640625 16.39453125 C 34.02739473296367 17.13990776376585 34.98503909775733 20.24363423072156 35.0859375 20.884765625 L 35.046875 20.951171875 C 35.0095760645738 20.9649197978682 34.91765870773608 21.0283220286555 34.798828125 21.109375 C 34.19009037118495 21.53496287313654 32.76789896626588 22.5312465676891 30.943359375 22.369140625 C 29.30232576411636 22.22293445397586 27.16071763465574 21.28075595737097 24.578125 19.580078125 C 24.69181502432801 19.84822239450708 25.22869847253311 21.12378166972256 25.318359375 21.337890625 L 25.35546875 21.380859375 C 25.7296535829618 21.57392803093132 29.31746891848779 23.40448621247709 31.09765625 23.3671875 C 32.53438255112913 23.3384961827099 34.06776231277684 22.63761694140094 34.681640625 22.26953125 L 34.876953125 22.232421875 C 34.9315865015698 22.275100209469 34.9231062496638 22.35660538193818 34.90625 22.43359375 C 34.8685924209639 22.60956716271265 34.78318783127841 22.93211911715918 34.724609375 23.08203125 L 34.677734375 23.20703125 C 34.6079184189458 23.39256843514266 34.53874939899178 23.57269279593899 34.408203125 23.6796875 C 34.04621217477375 24.00915946021469 33.46871321334587 24.26935816346428 32.564453125 24.666015625 C 31.16562349864687 25.27737977758996 28.89744909362169 25.6625844348483 26.791015625 25.650390625 C 26.03714675705855 25.6336540232474 25.30679220796324 25.54948626477902 24.666015625 25.4765625 C 23.32887269954408 25.32413987689631 22.24460896312024 25.20130641224792 21.595703125 25.705078125 C 23.17397410415684 27.4888412303569 25.47950530390939 28.615234375 28.048828125 28.615234375 C 32.806713801372 28.615234375 36.66601562500001 24.75833542540856 36.666015625 20 C 36.666015625 15.24238185752371 32.80719199285179 11.384765625 28.048828125 11.384765625 z M 30.32421875 15.9453125 C 29.6646731514537 15.955234913896 29.04507439193096 16.20185126241796 28.560546875 16.65625 C 28.0414700236518 17.13694911176461 27.74178237982082 17.79240038733279 27.716796875 18.5 C 27.6694559184975 19.95847529558032 28.81826199718916 21.18962712214879 30.27734375 21.244140625 C 30.98781674114751 21.2670936788321 31.65837806883113 21.01601371504741 32.17578125 20.53125 C 32.69174985672935 20.04899677521549 32.9896831122196 19.39597681326885 33.015625 18.689453125 C 33.0655960096415 17.22894552777826 31.91850396020998 15.9977937012098 30.45703125 15.9453125 C 30.4126789902464 15.94375838698 30.3680928182738 15.94459521706775 30.32421875 15.9453125 z M 30.25390625 16.7265625 C 30.3146365679376 16.722856538183 30.37397972197282 16.724291104048 30.435546875 16.7265625 C 31.45445337063353 16.7623070994573 32.25477426793741 17.61554694878298 32.220703125 18.63671875 C 32.2052814497757 19.12805755859307 31.99532200078677 19.58770189459826 31.634765625 19.92578125 C 31.2732528662536 20.26123056798347 30.80364147948707 20.4351043637327 30.30859375 20.419921875 C 29.28992635010637 20.3821449739014 28.4935117028025 19.52340439104175 28.52734375 18.50390625 C 28.5428849730942 18.01041559261021 28.7548767358724 17.55515569522648 29.11328125 17.21875 C 29.42781169585379 16.92394671484415 29.8281962850873 16.7525042327165 30.25390625 16.7265625 z M 30.740234375 17.650390625 C 30.28607201703781 17.650390625 29.91796875 17.896405805434 29.91796875 18.19921875 C 29.91796875 18.50011894007995 30.28607201703781 18.748046875 30.740234375 18.748046875 C 31.19296215852275 18.748046875 31.55859375 18.50059712870145 31.55859375 18.19921875 C 31.55859375000003 17.896405805434 31.19296215852274 17.650390625 30.740234375 17.650390625 z "
     id="path4195" />
</svg>

<svg xmlns="http://www.w3.org/2000/svg" fill="#3F51B5" viewBox="0 0 48 48"><path d="m8 12h-4v28c0 2.21 1.79 4 4 4h28v-4h-28v-28"/><path d="m16 4c-2.21 0-4 1.79-4 4v24c0 2.21 1.79 4 4 4h24c2.21 0 4-1.79 4-4v-24c0-2.21-1.79-4-4-4h-24m12 6c5.522 0 10 4.477 10 10 0 5.523-4.478 10-10 10-5.522 0-10-4.477-10-10 0-5.523 4.477-10 10-10m.049 1.385c-3.304 0-5.192 1.353-6.424 2.877.944.259 1.602.475 1.814.545.003-.143.025-1.43.025-1.43l.02-.039.047-.016c.29.042 6.487.958 9.1 2.479.323.189.48.389.68.594.721.745 1.678 3.849 1.779 4.49l-.039.066c-.037.014-.129.077-.248.158-.609.426-2.031 1.422-3.855 1.26-1.641-.146-3.783-1.088-6.365-2.789.114.268.651 1.544.74 1.758l.037.043c.374.193 3.962 2.024 5.742 1.986 1.437-.029 2.97-.73 3.584-1.098l.195-.037c.055.043.046.124.029.201-.038.176-.123.499-.182.648l-.047.125c-.07.186-.139.366-.27.473-.362.329-.939.59-1.844.986-1.399.611-3.667.997-5.773.984-.754-.017-1.484-.101-2.125-.174-1.337-.152-2.421-.275-3.07.229 1.578 1.784 3.884 2.91 6.453 2.91 4.758 0 8.617-3.857 8.617-8.615 0-4.758-3.859-8.615-8.617-8.615m2.275 4.561c-.66.01-1.279.257-1.764.711-.519.481-.819 1.136-.844 1.844-.047 1.458 1.101 2.69 2.561 2.744.71.023 1.381-.228 1.898-.713.516-.482.814-1.135.84-1.842.05-1.461-1.097-2.692-2.559-2.744-.044-.002-.089-.001-.133 0m-.07.781c.061-.004.12-.002.182 0 1.019.036 1.819.889 1.785 1.91-.015.491-.225.951-.586 1.289-.362.335-.831.509-1.326.494-1.019-.038-1.815-.897-1.781-1.916.016-.493.228-.949.586-1.285.315-.295.715-.466 1.141-.492m.486.924c-.454 0-.822.246-.822.549 0 .301.368.549.822.549.453 0 .818-.247.818-.549 0-.303-.366-.549-.818-.549"/></svg>
